src/css/fonts/SVGs/socials/github.svg

<?xml version="1.0" encoding="UTF-8"?>
<svg xmlns="http://www.w3.org/2000/svg" xmlns:xlink="http://www.w3.org/1999/xlink" width="48pt" height="48pt" viewBox="0 0 48 48" version="1.1">
<g id="surface1">
<path style=" stroke:none;fill-rule:nonzero;fill:black;fill-opacity:1;" d="M 29.058594 35.574219 C 29.65625 35.429688 30.28125 35.296875 30.898438 35.128906 C 33.347656 34.457031 35.597656 33.386719 37.441406 31.546875 C 39.308594 29.675781 40.332031 27.382812 40.546875 24.71875 C 40.753906 22.21875 40.425781 19.796875 39.335938 17.523438 C 39.101562 17.035156 38.820312 16.570312 38.519531 16.121094 C 38.226562 15.683594 37.886719 15.28125 37.582031 14.882812 C 38.414062 12.738281 38.511719 10.589844 37.554688 8.480469 C 37.046875 7.367188 37.222656 7.542969 36.082031 7.660156 C 33.722656 7.902344 31.738281 8.980469 30.066406 10.691406 C 29.996094 10.761719 29.832031 10.804688 29.738281 10.773438 C 27.515625 10.054688 25.226562 9.898438 22.917969 9.996094 C 21.3125 10.0625 19.734375 10.296875 18.203125 10.835938 C 18.121094 10.863281 17.964844 10.792969 17.890625 10.71875 C 16.449219 9.214844 14.742188 8.203125 12.71875 7.785156 C 12.222656 7.679688 11.707031 7.667969 11.203125 7.601562 C 10.992188 7.578125 10.875 7.667969 10.765625 7.839844 C 10.035156 8.984375 9.777344 10.253906 9.789062 11.59375 C 9.804688 12.769531 9.980469 13.910156 10.605469 14.945312 C 10.558594 15.003906 10.511719 15.070312 10.457031 15.128906 C 8.683594 17.089844 7.726562 19.421875 7.46875 22.074219 C 7.269531 24.164062 7.449219 26.199219 8.265625 28.144531 C 9.304688 30.621094 11.085938 32.375 13.363281 33.640625 C 15.03125 34.566406 16.820312 35.136719 18.675781 35.5 C 18.78125 35.519531 18.886719 35.546875 19.015625 35.574219 C 18.539062 36.570312 18.496094 37.613281 18.457031 38.664062 C 18.457031 38.761719 18.382812 38.90625 18.304688 38.941406 C 16.128906 39.929688 12.796875 39 11.410156 37.027344 C 11.292969 36.859375 11.191406 36.679688 11.078125 36.511719 C 10.25 35.265625 9.148438 34.441406 7.664062 34.242188 C 7.367188 34.203125 7.042969 34.242188 6.746094 34.3125 C 6.304688 34.417969 6.234375 34.695312 6.535156 35.054688 C 6.660156 35.199219 6.792969 35.347656 6.953125 35.449219 C 8.128906 36.242188 8.859375 37.398438 9.410156 38.683594 C 9.761719 39.503906 10.179688 40.261719 10.804688 40.890625 C 12.175781 42.269531 13.847656 42.914062 15.738281 42.941406 C 16.632812 42.953125 17.527344 42.828125 18.449219 42.761719 C 18.445312 42.734375 18.460938 42.773438 18.460938 42.808594 C 18.460938 43.886719 18.480469 44.96875 18.453125 46.046875 C 18.4375 46.769531 18.09375 47.34375 17.511719 47.746094 C 17.105469 48.027344 16.667969 48.070312 16.195312 47.902344 C 8.164062 45.070312 2.160156 38.039062 0.472656 29.476562 C -1.808594 17.894531 4.332031 6.203125 15.011719 1.792969 C 27.386719 -3.316406 41.40625 2.863281 46.324219 15.597656 C 50.417969 26.191406 46.808594 38.363281 37.652344 44.859375 C 35.847656 46.140625 33.910156 47.144531 31.839844 47.890625 C 31.175781 48.132812 30.621094 47.960938 30.144531 47.460938 C 29.722656 47.015625 29.53125 46.46875 29.535156 45.839844 C 29.539062 43.570312 29.546875 41.296875 29.53125 39.023438 C 29.523438 38.234375 29.46875 37.445312 29.382812 36.660156 C 29.339844 36.292969 29.171875 35.941406 29.058594 35.574219 Z M 29.058594 35.574219 "/>
</g>
</svg>

<svg xmlns="http://www.w3.org/2000/svg" viewBox="0 0 48 48">
  <path d="M29.059 35.574c.597-.144 1.222-.277 1.84-.445 2.449-.672 4.699-1.742 6.542-3.582 1.868-1.871 2.891-4.164 3.106-6.828.207-2.5-.121-4.922-1.211-7.196a11.407 11.407 0 0 0-.816-1.402c-.293-.437-.633-.84-.938-1.238.832-2.145.93-4.293-.027-6.403-.508-1.113-.332-.937-1.473-.82-2.36.242-4.344 1.32-6.016 3.031a.385.385 0 0 1-.328.082c-2.222-.718-4.511-.875-6.82-.777-1.605.066-3.184.3-4.715.84-.082.027-.238-.043-.312-.117-1.442-1.504-3.149-2.516-5.172-2.934-.496-.105-1.012-.117-1.516-.183-.21-.024-.328.066-.437.238-.73 1.144-.989 2.414-.977 3.754.016 1.176.191 2.316.816 3.351-.046.059-.093.125-.148.184-1.773 1.96-2.73 4.293-2.988 6.945-.2 2.09-.02 4.125.797 6.07 1.039 2.477 2.82 4.231 5.097 5.497 1.668.925 3.457 1.496 5.313 1.859.105.02.21.047.34.074-.477.996-.52 2.04-.559 3.09 0 .098-.074.242-.152.277-2.176.989-5.508.059-6.895-1.914-.117-.168-.219-.347-.332-.515-.828-1.246-1.93-2.07-3.414-2.27a2.62 2.62 0 0 0-.918.07c-.441.106-.512.383-.21.743.124.144.257.293.417.394 1.176.793 1.906 1.95 2.457 3.235.352.82.77 1.578 1.395 2.207 1.37 1.379 3.043 2.023 4.933 2.05.895.012 1.79-.113 2.711-.18-.004-.027.012.012.012.048 0 1.078.02 2.16-.008 3.238-.015.723-.36 1.297-.941 1.7-.407.28-.844.323-1.317.155C8.165 45.07 2.16 38.04.473 29.477-1.81 17.895 4.332 6.203 15.012 1.793c12.375-5.11 26.394 1.07 31.312 13.805 4.094 10.593.485 22.765-8.672 29.261a24.093 24.093 0 0 1-5.812 3.032c-.664.242-1.219.07-1.695-.43-.422-.445-.614-.992-.61-1.621.004-2.27.012-4.543-.004-6.817a23.91 23.91 0 0 0-.148-2.363c-.043-.367-.211-.719-.324-1.086Zm0 0"/>
</svg>
